images/full-screen-flow/check-circle-outline.svg

<svg height="12" viewBox="0 0 12 12" width="12" xmlns="http://www.w3.org/2000/svg"><path d="m12 0c3.312 0 6 2.688 6 6s-2.688 6-6 6-6-2.688-6-6 2.688-6 6-6zm0 1c-2.76 0-5 2.24-5 5s2.24 5 5 5 5-2.24 5-5-2.24-5-5-5zm-1 7.5-2.5-2.5.705-.705 1.795 1.79 3.795-3.795.705.71z" transform="translate(-6)"/></svg>

<?xml version="1.0" encoding="UTF-8"?>
<svg width="12px" height="12px" viewBox="0 0 12 12" version="1.1" xmlns="http://www.w3.org/2000/svg" xmlns:xlink="http://www.w3.org/1999/xlink">
    <!-- Generator: Sketch 50.2 (55047) - http://www.bohemiancoding.com/sketch -->
    <title>check</title>
    <desc>Created with Sketch.</desc>
    <defs></defs>
    <g id="Android-Light" stroke="none" stroke-width="1" fill="none" fill-rule="evenodd">
        <g id="Android-Light/Message/Status/Sent" transform="translate(-6.000000, 0.000000)" fill="#000000" fill-rule="nonzero">
            <path d="M12,0 C15.312,0 18,2.688 18,6 C18,9.312 15.312,12 12,12 C8.688,12 6,9.312 6,6 C6,2.688 8.688,0 12,0 Z M12,1 C9.24,1 7,3.24 7,6 C7,8.76 9.24,11 12,11 C14.76,11 17,8.76 17,6 C17,3.24 14.76,1 12,1 Z M11,8.5 L8.5,6 L9.205,5.295 L11,7.085 L14.795,3.29 L15.5,4 L11,8.5 Z" id="check"></path>
        </g>
    </g>
</svg>
